X:13
T:The Wooden City Polkas
T:Wooden City Polka #2
C:Paddy O'Brien (Offaly)
R:polka
D:Snug in the Blanket,P.O'Brien,J.Gans,D.Sproule
Z:Paul Stewart Cranford (P.S.C.), <http://www.cranfordpub.com>
L:1/8
Q:333
M:2/4
K:G
GB dB|G2 DE/F/|GB dE|=F2 DE/^F/|
G>B dB|G2 DE|=FA/F/ EC|=FA/F/ EC:|
|:G>B de/f/|ge dB|GB de|cB AF|
G>B de/f/|ge dB|ce/c/ A=F|ce/c/ A=F:|
W:copyright - Paddy O'Brien
